img/programs/popular-star.svg

<svg width="14" height="13" viewBox="0 0 14 13" fill="none" xmlns="http://www.w3.org/2000/svg">
<path d="M6.52447 0.463524C6.67415 0.00286841 7.32585 0.00286996 7.47553 0.463525L8.68386 4.18237C8.75079 4.38838 8.94277 4.52786 9.15938 4.52786H13.0696C13.554 4.52786 13.7554 5.14767 13.3635 5.43237L10.2001 7.73075C10.0248 7.85807 9.95149 8.08375 10.0184 8.28976L11.2268 12.0086C11.3764 12.4693 10.8492 12.8523 10.4573 12.5676L7.29389 10.2693C7.11865 10.1419 6.88135 10.1419 6.70611 10.2693L3.54267 12.5676C3.15081 12.8523 2.62357 12.4693 2.77325 12.0086L3.98157 8.28976C4.04851 8.08375 3.97518 7.85807 3.79994 7.73075L0.636495 5.43237C0.244639 5.14767 0.446028 4.52786 0.93039 4.52786H4.84062C5.05723 4.52786 5.24921 4.38838 5.31614 4.18237L6.52447 0.463524Z" fill="#FF9B26"/>
</svg>

<svg width="14" height="13" fill="none" xmlns="http://www.w3.org/2000/svg"><path d="M6.524.464a.5.5 0 01.952 0l1.208 3.718a.5.5 0 00.475.346h3.91a.5.5 0 01.294.904L10.2 7.731a.5.5 0 00-.182.559l1.209 3.719a.5.5 0 01-.77.559l-3.163-2.299a.5.5 0 00-.588 0l-3.163 2.299a.5.5 0 01-.77-.56L3.982 8.29a.5.5 0 00-.182-.56L.636 5.433a.5.5 0 01.294-.904h3.91a.5.5 0 00.476-.346L6.524.464z" fill="#FF9B26"/></svg>
